X:292
T:Hawthorn Tree of Cawdor
R:Strathspey
%%printtempo 0
Q:100
M:C
L:1/8
K:Am
e|\
{AB}c>B TA>G (A/B/c) {/C}EF| G>ATG>E {/F}G2 G>B| {AB}c>B TA>G A<c {/C}E2| {/B,}D/D/ D EG !turn!A2 Ae|
{AB}c>B TA>G (A/B/c) {/C}E2| E<GTG>E {/^F}G2 G>B| {AB}c>B TA>G A<c| {/C}TE| {/B,}D<D E>G A3::
G/F/|\
Gc/c/ .[Ec].[Ec] c2 .c.c| [GB]>c dd d2 d<f| e>d c>B {/B}c>BTA>G| A<c {Bc}d>B c2 c (A//G//F//E//)|
E<c T[c2E2] E<c T[c2E2]| A<(dTd^c) d2 de| c>de<a ^g<a {/f}e>d| c>AG>^G A3:|
